X:1
T:Title
%%score { 1 | ( 2 3 ) }
L:1/8
Q:1/4=100
M:6/8
K:D
V:1 treble nm="Grand Piano"
V:2 bass 
V:3 bass 
V:1
 FFF FE[F,D] | [DFA][DFA][A,DF][K:bass] [F,A,D]3 | [A,CE][A,CE][A,CE] [CE][K:treble][B,D][CE] | %3
w: J.~J.~Lowe * * * * *|||
 [DF]3 [FA]3 | FFF FED | [FA]A[A,DF][K:bass] [F,A,D]3 | %6
w: |||
 [A,CE][K:treble][A,CE][A,CE] [A,DF]2[K:bass] [A,CE] | [F,D]2[K:treble] D D3 | %8
w: ||
 [Fd]2 [Ac] [GB]2 [FA] | [GB]2 [FA] F3 | D2 D DEF | [DF]3 [CE]3 | [Fd]2 [Ac] [GB]2 [FA] | %13
w: |||||
 [GB]2 [FA] F3 | D2 E F2 D | [CE]3 D3 |] %16
w: |||
V:2
 z3 .A,3 | D,D,D, D,3 | A,,C,E, [A,,A,]2 [A,,A,] | [D,A,]3 [D,D]3 | %4
 [D,A,D][D,A,D][D,A,D] [D,A,D][D,G,D][D,F,] | .[D,D]3 z3 | A,,C,E, A,,2 A,, | z A,A, [F,A,]3 | %8
 [D,A,]2 [D,D] [D,D]2 [D,D] | [D,D]2 [D,D] [D,A,D]3 | [D,F,A,]2 [D,F,A,] [D,A,]-[D,G,A,][D,A,D] | %11
 [A,,A,]3 [A,,A,]3 | [D,A,]2 [D,D] [D,D]2 [D,D] | [D,D]2 [D,D] [D,A,D]3 | %14
 [D,F,]2 [D,G,D] [D,A,D]2 [D,F,] | [A,,G,]3 [D,F,]3 |] %16
V:3
 [D,A,D][D,A,D][D,A,D] [D,D]-[D,G,D]D, | x6 | x6 | x6 | x6 | z FD, D,3 | x6 | D,6 | x6 | x6 | %10
 z3 .F,3 | x6 | x6 | x6 | x6 | x6 |] %16

